img/small-search.svg

<svg width="11" height="12" viewBox="0 0 11 12" fill="none" xmlns="http://www.w3.org/2000/svg">
<path d="M10.8345 10.8638L7.91312 7.98372C8.1957 7.54241 8.40685 7.05813 8.54131 6.54133C8.68522 5.98737 8.7367 5.41135 8.69573 4.82835C8.65161 4.20819 8.50034 3.61126 8.24823 3.05266C7.99506 2.49521 7.65261 2.00397 7.22926 1.59285C6.36367 0.7532 5.25437 0.330471 4.10515 0.403636C2.94438 0.4768 1.87814 1.04586 1.10394 2.00629C0.329745 2.96672 -0.0589313 4.20123 0.00724863 5.48451C0.0734286 6.76779 0.588161 7.94656 1.4569 8.80247C2.26157 9.59566 3.28053 10.023 4.34886 10.023C4.43395 10.023 4.51904 10.0207 4.60413 10.0149C5.11466 9.98239 5.60943 9.85464 6.07374 9.63515C6.50654 9.43075 6.90362 9.14971 7.25553 8.8013L10.1769 11.6803C10.2683 11.7709 10.3838 11.8185 10.5057 11.8185C10.5152 11.8185 10.5246 11.8185 10.5341 11.8173C10.6664 11.8092 10.7872 11.7441 10.8755 11.635C11.0561 11.4108 11.0383 11.0648 10.8345 10.8638ZM6.89732 7.64577C6.29749 8.41109 5.46237 8.86402 4.54635 8.92208C3.63034 8.98015 2.75424 8.63523 2.07984 7.95236C0.749934 6.60288 0.62913 4.2802 1.81196 2.77277C2.41179 2.00861 3.24586 1.55569 4.16188 1.49762C4.22806 1.49298 4.29424 1.49181 4.36042 1.49181C5.20395 1.49181 6.00231 1.83441 6.62839 2.4685C7.95935 3.81566 8.0791 6.13835 6.89732 7.64577Z" fill="white"/>
</svg>

<svg width="11" height="12" fill="none" xmlns="http://www.w3.org/2000/svg"><path d="M10.835 10.864l-2.922-2.88c.283-.442.494-.926.628-1.443a5.315 5.315 0 00-.293-3.488 4.772 4.772 0 00-1.019-1.46C6.364.753 5.254.33 4.105.403c-1.16.074-2.227.643-3.001 1.603S-.06 4.201.007 5.485c.066 1.283.581 2.462 1.45 3.317.805.794 1.824 1.221 2.892 1.221a4.024 4.024 0 001.725-.388c.433-.204.83-.485 1.182-.834l2.92 2.88c.092.09.208.138.33.138.01 0 .019 0 .028-.002a.475.475 0 00.341-.182.588.588 0 00-.04-.771zM6.896 7.646c-.6.765-1.435 1.218-2.35 1.276-.917.058-1.793-.287-2.467-.97C.75 6.602.63 4.28 1.812 2.772c.6-.763 1.434-1.216 2.35-1.274.066-.005.132-.006.198-.006.844 0 1.642.342 2.268.977 1.331 1.347 1.451 3.67.27 5.177z" fill="#fff"/></svg>
